X:2559
L:1/8
Q:1/4=112
M:4/4
K:F#
 C>C |"F#" F2 F2 F>C F>G | A2 A2 A2 B>A |"C#7" G4- G2 A>G |"F#" F4- F2 C>C | F2 F2 F>C F>G | 
 A2 A2 A2 B>A |"C#7" G4- G2 A>G |"F#" F4- F2 || A>B |"F#" c4- c>d c>B | A2 A2 A2 B>A | 
"C#" G4-"C#7" G>B A>G |"F#" A4- A2 A>B | c4- c>d c>B | A2 A2 A2 B>A |"C#" G4-"C#7" G>B A>G | 
"F#" F6 |]

